src/images/appleStore.svg

<svg width="192" height="52" viewBox="0 0 192 52" fill="none" xmlns="http://www.w3.org/2000/svg">
<g clip-path="url(#clip0_21_552)">
<path d="M56.4433 10.1031L55.4571 13.3327H53.3113L56.9635 1.93164H59.6187L63.3251 13.3327H61.0926L60.063 10.1031H56.4433ZM59.7054 8.53168L58.8059 5.72477C58.5891 5.03117 58.4049 4.25087 58.2315 3.58978H58.199C58.0256 4.25087 57.863 5.042 57.6571 5.72477L56.7793 8.53168H59.7054Z" fill="#2E65F2"/>
<path d="M66.4355 5.09619L67.7685 9.27947C68.0069 10.0056 68.1695 10.6667 68.3321 11.3386H68.3863C68.538 10.6667 68.7222 10.0164 68.9498 9.27947L70.272 5.09619H72.4503L69.3074 13.3327H67.2591L64.1921 5.09619H66.4463H66.4355Z" fill="#2E65F2"/>
<path d="M80.7518 11.3603C80.7518 12.1081 80.7843 12.8342 80.8819 13.3436H79.007L78.8553 12.4332H78.8011C78.3134 13.0727 77.4464 13.5278 76.3626 13.5278C74.7045 13.5278 73.7725 12.3249 73.7725 11.0786C73.7725 9.01943 75.6148 7.94651 78.6602 7.96819V7.83814C78.6602 7.29626 78.4434 6.39675 76.9804 6.39675C76.1675 6.39675 75.3222 6.64601 74.7695 7.00365L74.3685 5.64896C74.9754 5.28049 76.0483 4.92285 77.3488 4.92285C79.9932 4.92285 80.7518 6.60266 80.7518 8.41253V11.3712V11.3603ZM78.7252 9.31204C77.2513 9.29036 75.8533 9.60465 75.8533 10.851C75.8533 11.6638 76.3735 12.0323 77.0346 12.0323C77.8799 12.0323 78.4759 11.4904 78.671 10.8943C78.7252 10.7426 78.7252 10.5909 78.7252 10.4391V9.3012V9.31204Z" fill="#2E65F2"/>
<path d="M84.7184 3.91484C84.0248 3.91484 83.5696 3.40548 83.5696 2.79858C83.5696 2.15917 84.0464 1.66064 84.74 1.66064C85.4336 1.66064 85.8888 2.14833 85.9105 2.79858C85.9105 3.40548 85.4553 3.91484 84.74 3.91484H84.7184ZM83.6888 13.3326V5.09613H85.7696V13.3326H83.6888Z" fill="#2E65F2"/>
<path d="M88.7607 1.31396H90.8415V13.3436H88.7607V1.31396Z" fill="#2E65F2"/>
<path d="M100.249 11.3603C100.249 12.1081 100.281 12.8342 100.379 13.3436H98.5037L98.3519 12.4332H98.2978C97.8101 13.0727 96.9431 13.5278 95.8593 13.5278C94.2012 13.5278 93.2692 12.3249 93.2692 11.0786C93.2692 9.01943 95.1115 7.94651 98.1569 7.96819V7.83814C98.1569 7.29626 97.9401 6.39675 96.4879 6.39675C95.6751 6.39675 94.8298 6.64601 94.2771 7.00365L93.8761 5.64896C94.483 5.28049 95.5559 4.92285 96.8564 4.92285C99.4899 4.92285 100.259 6.60266 100.259 8.41253V11.3712L100.249 11.3603ZM98.2219 9.31204C96.748 9.29036 95.35 9.60465 95.35 10.851C95.35 11.6638 95.8702 12.0323 96.5312 12.0323C97.3766 12.0323 97.9726 11.4904 98.1677 10.8943C98.2219 10.7426 98.2219 10.5909 98.2219 10.4391V9.3012V9.31204Z" fill="#2E65F2"/>
<path d="M103.196 1.31396H105.277V6.23419H105.31C105.819 5.44305 106.718 4.91201 107.954 4.91201C109.97 4.91201 111.4 6.59183 111.389 9.09529C111.389 12.0539 109.515 13.5278 107.65 13.5278C106.588 13.5278 105.635 13.116 105.049 12.1081H105.017L104.919 13.3436H103.142C103.175 12.78 103.207 11.8697 103.207 11.046V1.31396H103.196ZM105.277 9.94061C105.277 10.114 105.299 10.2766 105.331 10.4283C105.548 11.2736 106.274 11.8805 107.174 11.8805C108.474 11.8805 109.276 10.851 109.276 9.17115C109.276 7.71893 108.583 6.53764 107.195 6.53764C106.35 6.53764 105.57 7.14454 105.353 8.05489C105.32 8.20661 105.288 8.39085 105.288 8.59676V9.92978L105.277 9.94061Z" fill="#2E65F2"/>
<path d="M113.828 1.31396H115.909V13.3436H113.828V1.31396Z" fill="#2E65F2"/>
<path d="M120.395 9.79982C120.45 11.2846 121.609 11.9348 122.931 11.9348C123.896 11.9348 124.568 11.7831 125.218 11.5663L125.522 12.986C124.806 13.2895 123.831 13.5062 122.65 13.5062C119.973 13.5062 118.401 11.8698 118.401 9.34465C118.401 7.05793 119.789 4.91211 122.433 4.91211C125.077 4.91211 125.988 7.11212 125.988 8.92198C125.988 9.31213 125.955 9.61558 125.923 9.79982H120.406H120.395ZM124.015 8.3476C124.037 7.58897 123.69 6.33182 122.303 6.33182C121.013 6.33182 120.471 7.50227 120.395 8.3476H124.015Z" fill="#2E65F2"/>
<path d="M136.24 13.5279C133.921 13.5279 132.111 11.9348 132.111 9.27962C132.111 6.62443 133.888 4.91211 136.37 4.91211C138.852 4.91211 140.466 6.63527 140.466 9.13873C140.466 12.1624 138.331 13.5171 136.251 13.5171H136.229L136.24 13.5279ZM136.305 12.0215C137.486 12.0215 138.321 10.8727 138.321 9.19292C138.321 7.90326 137.746 6.41852 136.327 6.41852C134.907 6.41852 134.257 7.85991 134.257 9.22543C134.257 10.8185 135.048 12.0215 136.283 12.0215H136.305Z" fill="#2E65F2"/>
<path d="M142.916 7.55636C142.916 6.6135 142.883 5.81153 142.851 5.10709H144.661L144.758 6.34256H144.812C145.181 5.70315 146.08 4.92285 147.457 4.92285C148.833 4.92285 150.383 5.85488 150.383 8.45588V13.3436H148.302V8.68346C148.302 7.50218 147.858 6.60266 146.731 6.60266C145.907 6.60266 145.332 7.19873 145.105 7.81646C145.04 7.98986 145.007 8.23913 145.007 8.47755V13.3328H142.927V7.55636H142.916Z" fill="#2E65F2"/>
<path d="M159.963 2.98301V5.09632H161.946V6.65692H159.963V10.2766C159.963 11.2954 160.234 11.7939 161.025 11.7939C161.394 11.7939 161.6 11.7722 161.838 11.7072L161.871 13.2786C161.567 13.3978 161.004 13.4954 160.364 13.4954C159.584 13.4954 158.966 13.2461 158.576 12.8235C158.121 12.3466 157.915 11.588 157.915 10.5042V6.64608H156.744V5.08548H157.915V3.54656L159.963 2.97217V2.98301Z" fill="#2E65F2"/>
<path d="M164.266 1.31396H166.346V6.21251H166.379C166.628 5.82236 166.986 5.49724 167.408 5.28049C167.831 5.04207 168.319 4.91201 168.85 4.91201C170.248 4.91201 171.722 5.84404 171.722 8.47755V13.3328H169.641V8.70514C169.641 7.52385 169.197 6.60266 168.048 6.60266C167.235 6.60266 166.661 7.14454 166.422 7.77312C166.357 7.95735 166.336 8.18494 166.336 8.40169V13.3436H164.255V1.31396H164.266Z" fill="#2E65F2"/>
<path d="M176.154 9.79982C176.209 11.2846 177.368 11.9348 178.69 11.9348C179.655 11.9348 180.327 11.7831 180.977 11.5663L181.281 12.986C180.565 13.2895 179.59 13.5062 178.409 13.5062C175.732 13.5062 174.16 11.8698 174.16 9.34465C174.16 7.05793 175.547 4.91211 178.192 4.91211C180.836 4.91211 181.747 7.11212 181.747 8.92198C181.747 9.31213 181.714 9.61558 181.682 9.79982H176.165H176.154ZM179.774 8.3476C179.796 7.58897 179.449 6.33182 178.062 6.33182C176.772 6.33182 176.23 7.50227 176.154 8.3476H179.774Z" fill="#2E65F2"/>
<path d="M30.5633 24.3981C30.5092 18.7517 35.1801 16.0098 35.3969 15.8798C32.7525 12.0216 28.6451 11.4906 27.2037 11.4472C23.7574 11.0896 20.4194 13.5064 18.6638 13.5064C16.9081 13.5064 14.1662 11.4798 11.2618 11.5339C7.51198 11.599 4.01146 13.7665 2.08239 17.1261C-1.88414 23.9971 1.0745 34.0868 4.87846 39.6464C6.78586 42.3666 9.00755 45.4011 11.912 45.2928C14.7514 45.1735 15.8135 43.4829 19.249 43.4829C22.6845 43.4829 23.649 45.2928 26.6185 45.2277C29.6747 45.1735 31.5929 42.4967 33.4244 39.7548C35.6245 36.6336 36.5023 33.5666 36.5456 33.4149C36.4698 33.3932 30.6175 31.1607 30.5525 24.3872" fill="#2E65F2"/>
<path d="M24.9604 7.80568C26.4885 5.88744 27.5398 3.28644 27.2472 0.64209C25.0363 0.739627 22.2619 2.17018 20.6688 4.04506C19.2599 5.69237 17.9919 8.40174 18.3171 10.9377C20.8097 11.122 23.3565 9.68056 24.9604 7.79484" fill="#2E65F2"/>
<path d="M71.6808 44.8591H67.7143L65.5468 38.0315H58.0039L55.934 44.8591H52.0758L59.5537 21.6235H64.1705L71.6808 44.8591ZM64.8966 35.1704L62.935 29.1014C62.7291 28.4837 62.3389 27.0206 61.7645 24.7231H61.6995C61.4719 25.7093 61.1034 27.1723 60.5941 29.1014L58.665 35.1704H64.9074H64.8966Z" fill="#2E65F2"/>
<path d="M90.9174 36.2756C90.9174 39.1259 90.148 41.3801 88.609 43.0274C87.2327 44.5013 85.5204 45.2274 83.4721 45.2274C81.2612 45.2274 79.679 44.4362 78.7144 42.854H78.6494V51.6757H74.9213V33.6204C74.9213 31.8322 74.8779 29.9898 74.7804 28.1041H78.0533L78.2592 30.7593H78.3351C79.5706 28.7544 81.4563 27.7573 83.9814 27.7573C85.9539 27.7573 87.612 28.5376 88.9233 30.0982C90.2455 31.6588 90.9066 33.7179 90.9066 36.2648M87.1135 36.4056C87.1135 34.78 86.745 33.4253 86.008 32.3741C85.2061 31.2687 84.1223 30.716 82.7676 30.716C81.8464 30.716 81.012 31.0194 80.2642 31.6263C79.5164 32.244 79.0287 33.0352 78.8011 34.0214C78.6819 34.4874 78.6277 34.8559 78.6277 35.1593V37.9554C78.6277 39.1692 78.9962 40.1988 79.744 41.0333C80.4918 41.8786 81.4671 42.2904 82.6593 42.2904C84.0573 42.2904 85.1519 41.7594 85.9322 40.6756C86.7125 39.5919 87.1026 38.1722 87.1026 36.3948" fill="#2E65F2"/>
<path d="M110.187 36.2756C110.187 39.1259 109.417 41.3801 107.878 43.0274C106.502 44.5013 104.789 45.2274 102.741 45.2274C100.541 45.2274 98.948 44.4362 97.9835 42.854H97.9185V51.6757H94.2012V33.6204C94.2012 31.8322 94.1578 29.9898 94.0603 28.1041H97.3332L97.5391 30.7593H97.615C98.8505 28.7544 100.736 27.7573 103.261 27.7573C105.234 27.7573 106.881 28.5376 108.203 30.0982C109.525 31.6588 110.187 33.7179 110.187 36.2648M106.393 36.4056C106.393 34.78 106.025 33.4253 105.288 32.3741C104.486 31.2687 103.402 30.716 102.048 30.716C101.126 30.716 100.292 31.0194 99.5441 31.6263C98.7963 32.244 98.3086 33.0352 98.081 34.0214C97.9618 34.4874 97.9076 34.8559 97.9076 35.1593V37.9554C97.9076 39.1692 98.2761 40.1988 99.0239 41.0333C99.7717 41.8786 100.736 42.2904 101.939 42.2904C103.337 42.2904 104.432 41.7594 105.212 40.6756C105.992 39.5919 106.383 38.1722 106.383 36.3948" fill="#2E65F2"/>
<path d="M131.731 38.3457C131.731 40.3182 131.049 41.9329 129.662 43.1684C128.144 44.5231 126.042 45.2059 123.332 45.2059C120.829 45.2059 118.824 44.729 117.307 43.7645L118.174 40.665C119.81 41.6512 121.598 42.1497 123.56 42.1497C124.958 42.1497 126.053 41.8354 126.833 41.2068C127.613 40.5674 128.003 39.7221 128.003 38.6709C128.003 37.728 127.678 36.9369 127.039 36.2866C126.399 35.6364 125.327 35.0403 123.831 34.4876C119.767 32.9703 117.729 30.7486 117.729 27.8225C117.729 25.9151 118.445 24.3437 119.864 23.1299C121.284 21.9052 123.181 21.2983 125.554 21.2983C127.667 21.2983 129.423 21.6668 130.821 22.4038L129.889 25.4383C128.578 24.723 127.093 24.3654 125.446 24.3654C124.134 24.3654 123.116 24.6905 122.379 25.3299C121.761 25.9043 121.447 26.6087 121.447 27.4324C121.447 28.3536 121.804 29.1122 122.509 29.7082C123.126 30.261 124.254 30.857 125.89 31.5073C127.884 32.3092 129.358 33.2521 130.301 34.3359C131.244 35.4196 131.71 36.7635 131.71 38.3674" fill="#2E65F2"/>
<path d="M144.032 30.9002H139.935V39.0391C139.935 41.1091 140.662 42.1386 142.114 42.1386C142.775 42.1386 143.328 42.0845 143.761 41.9652L143.859 44.7938C143.133 45.0648 142.157 45.2057 140.965 45.2057C139.491 45.2057 138.342 44.7613 137.519 43.8618C136.695 42.9623 136.272 41.4559 136.272 39.3426V30.9002H133.823V28.1041H136.272V25.0371L139.925 23.9316V28.1041H144.021V30.9002H144.032Z" fill="#2E65F2"/>
<path d="M162.553 36.3519C162.553 38.9312 161.816 41.0445 160.353 42.6918C158.814 44.3933 156.766 45.2386 154.219 45.2386C151.672 45.2386 149.798 44.4258 148.345 42.7893C146.882 41.1637 146.156 39.1046 146.156 36.6228C146.156 34.0218 146.904 31.8976 148.41 30.2503C149.917 28.5922 151.943 27.7686 154.49 27.7686C157.037 27.7686 158.923 28.5814 160.418 30.2178C161.849 31.8109 162.553 33.8484 162.553 36.3519ZM158.695 36.4711C158.695 34.9321 158.359 33.5991 157.698 32.4937C156.918 31.1607 155.802 30.4888 154.36 30.4888C152.919 30.4888 151.727 31.1607 150.946 32.4937C150.274 33.5991 149.949 34.943 149.949 36.5361C149.949 38.1292 150.274 39.408 150.946 40.5135C151.748 41.8465 152.875 42.5184 154.328 42.5184C155.78 42.5184 156.864 41.8356 157.666 40.4809C158.359 39.3538 158.695 38.0208 158.695 36.4711Z" fill="#2E65F2"/>
<path d="M174.648 31.377C174.279 31.312 173.889 31.2795 173.477 31.2795C172.166 31.2795 171.158 31.778 170.443 32.7642C169.825 33.6421 169.511 34.7367 169.511 36.0697V44.8589H165.794L165.826 33.382C165.826 31.4529 165.783 29.6972 165.685 28.1041H168.926L169.067 31.312H169.164C169.554 30.2066 170.183 29.3179 171.028 28.6568C171.852 28.0608 172.751 27.7573 173.716 27.7573C174.063 27.7573 174.366 27.779 174.648 27.8223V31.377Z" fill="#2E65F2"/>
<path d="M191.294 35.6906C191.294 36.3625 191.251 36.9152 191.164 37.3812H180.002C180.045 39.0394 180.587 40.2965 181.616 41.1743C182.559 41.9546 183.773 42.3448 185.269 42.3448C186.916 42.3448 188.422 42.0847 189.788 41.5537L190.373 44.1438C188.791 44.8374 186.916 45.1842 184.748 45.1842C182.158 45.1842 180.11 44.4148 178.636 42.8867C177.162 41.3586 176.414 39.3103 176.414 36.731C176.414 34.1516 177.108 32.1034 178.484 30.4235C179.926 28.6354 181.887 27.7358 184.337 27.7358C186.786 27.7358 188.585 28.6354 189.82 30.4235C190.807 31.8541 191.294 33.6098 191.294 35.7014M187.75 34.7369C187.772 33.6314 187.534 32.6777 187.024 31.8758C186.385 30.8462 185.388 30.326 184.055 30.326C182.841 30.326 181.855 30.8354 181.096 31.8433C180.478 32.6452 180.11 33.6098 180.002 34.7369H187.75Z" fill="#2E65F2"/>
</g>
<defs>
<clipPath id="clip0_21_552">
<rect width="191.087" height="51.0446" fill="white" transform="translate(0.20752 0.64209)"/>
</clipPath>
</defs>
</svg>

<svg width="192" height="52" fill="none" xmlns="http://www.w3.org/2000/svg"><g clip-path="url(#a)" fill="#2E65F2"><path d="m56.443 10.103-.986 3.23h-2.146l3.653-11.401h2.655l3.706 11.4h-2.232l-1.03-3.229h-3.62Zm3.262-1.571-.9-2.807c-.216-.694-.4-1.474-.574-2.135H58.2c-.173.66-.336 1.452-.542 2.135l-.878 2.807h2.926ZM66.436 5.096l1.332 4.183c.239.727.401 1.388.564 2.06h.054c.152-.672.336-1.323.564-2.06l1.322-4.183h2.178l-3.143 8.237H67.26l-3.067-8.237h2.254-.01ZM80.752 11.36c0 .748.032 1.474.13 1.984h-1.875l-.152-.91h-.054c-.488.639-1.355 1.094-2.438 1.094-1.659 0-2.59-1.203-2.59-2.45 0-2.059 1.842-3.131 4.887-3.11v-.13c0-.542-.217-1.441-1.68-1.441-.813 0-1.658.249-2.21.607l-.401-1.355c.606-.369 1.68-.726 2.98-.726 2.644 0 3.403 1.68 3.403 3.49v2.958-.01Zm-2.027-2.048c-1.474-.022-2.872.293-2.872 1.539 0 .813.52 1.181 1.182 1.181.845 0 1.44-.542 1.636-1.138.054-.151.054-.303.054-.455V9.301v.011ZM84.718 3.915c-.693 0-1.148-.51-1.148-1.116 0-.64.476-1.138 1.17-1.138s1.149.487 1.17 1.138c0 .606-.455 1.116-1.17 1.116h-.022Zm-1.03 9.418V5.096h2.082v8.237h-2.081ZM88.76 1.314h2.081v12.03h-2.08V1.314ZM100.249 11.36c0 .748.032 1.474.13 1.984h-1.875l-.152-.91h-.054c-.488.639-1.355 1.094-2.439 1.094-1.658 0-2.59-1.203-2.59-2.45 0-2.059 1.843-3.131 4.888-3.11v-.13c0-.542-.217-1.441-1.67-1.441-.812 0-1.657.249-2.21.607l-.4-1.355c.606-.369 1.679-.726 2.98-.726 2.633 0 3.402 1.68 3.402 3.49v2.958l-.01-.01Zm-2.027-2.048c-1.474-.022-2.872.293-2.872 1.539 0 .813.52 1.181 1.181 1.181.846 0 1.442-.542 1.637-1.138.054-.151.054-.303.054-.455V9.301v.011ZM103.196 1.314h2.081v4.92h.033c.509-.79 1.408-1.322 2.644-1.322 2.016 0 3.446 1.68 3.435 4.183 0 2.959-1.874 4.433-3.739 4.433-1.062 0-2.015-.412-2.601-1.42h-.032l-.098 1.236h-1.777c.033-.564.065-1.474.065-2.298V1.314h-.011Zm2.081 8.627c0 .173.022.336.054.487.217.846.943 1.452 1.843 1.452 1.3 0 2.102-1.029 2.102-2.709 0-1.452-.693-2.633-2.081-2.633-.845 0-1.625.607-1.842 1.517a2.527 2.527 0 0 0-.065.542V9.93l-.011.01ZM113.828 1.314h2.081v12.03h-2.081V1.314ZM120.395 9.8c.055 1.485 1.214 2.135 2.536 2.135.965 0 1.637-.152 2.287-.369l.304 1.42c-.716.303-1.691.52-2.872.52-2.677 0-4.249-1.636-4.249-4.161 0-2.287 1.388-4.433 4.032-4.433s3.555 2.2 3.555 4.01c0 .39-.033.694-.065.878H120.395Zm3.62-1.452c.022-.759-.325-2.016-1.712-2.016-1.29 0-1.832 1.17-1.908 2.016h3.62ZM136.24 13.528c-2.319 0-4.129-1.593-4.129-4.248 0-2.656 1.777-4.368 4.259-4.368s4.096 1.723 4.096 4.227c0 3.023-2.135 4.378-4.215 4.378h-.022l.011.01Zm.065-1.507c1.181 0 2.016-1.148 2.016-2.828 0-1.29-.575-2.774-1.994-2.774-1.42 0-2.07 1.44-2.07 2.806 0 1.594.791 2.796 2.026 2.796h.022ZM142.916 7.556c0-.942-.033-1.744-.065-2.449h1.81l.097 1.236h.054c.369-.64 1.268-1.42 2.645-1.42 1.376 0 2.926.932 2.926 3.533v4.888h-2.081v-4.66c0-1.182-.444-2.081-1.571-2.081-.824 0-1.399.596-1.626 1.213a2.023 2.023 0 0 0-.098.662v4.855h-2.08V7.556h-.011ZM159.963 2.983v2.113h1.983v1.56h-1.983v3.62c0 1.02.271 1.518 1.062 1.518.369 0 .575-.022.813-.087l.033 1.572c-.304.119-.867.216-1.507.216-.78 0-1.398-.249-1.788-.671-.455-.477-.661-1.236-.661-2.32V6.646h-1.171v-1.56h1.171v-1.54l2.048-.574v.011ZM164.266 1.314h2.08v4.899h.033c.249-.39.607-.716 1.029-.933a2.912 2.912 0 0 1 1.442-.368c1.398 0 2.872.932 2.872 3.566v4.855h-2.081V8.705c0-1.181-.444-2.102-1.593-2.102-.813 0-1.387.542-1.626 1.17a1.961 1.961 0 0 0-.086.629v4.942h-2.081V1.314h.011ZM176.154 9.8c.055 1.485 1.214 2.135 2.536 2.135.965 0 1.637-.152 2.287-.369l.304 1.42c-.716.303-1.691.52-2.872.52-2.677 0-4.249-1.636-4.249-4.161 0-2.287 1.387-4.433 4.032-4.433 2.644 0 3.555 2.2 3.555 4.01 0 .39-.033.694-.065.878H176.154Zm3.62-1.452c.022-.759-.325-2.016-1.712-2.016-1.29 0-1.832 1.17-1.908 2.016h3.62ZM30.563 24.398c-.054-5.646 4.617-8.388 4.834-8.518-2.645-3.858-6.752-4.39-8.193-4.433-3.447-.357-6.785 2.06-8.54 2.06-1.756 0-4.498-2.027-7.402-1.973-3.75.065-7.25 2.232-9.18 5.592-3.966 6.871-1.007 16.96 2.796 22.52 1.908 2.72 4.13 5.755 7.034 5.647 2.84-.12 3.901-1.81 7.337-1.81s4.4 1.81 7.37 1.745c3.056-.055 4.974-2.731 6.805-5.473 2.2-3.121 3.078-6.188 3.122-6.34-.076-.022-5.928-2.254-5.994-9.028M24.96 7.806c1.528-1.919 2.58-4.52 2.287-7.164-2.21.098-4.985 1.528-6.578 3.403-1.41 1.647-2.677 4.357-2.352 6.893 2.493.184 5.04-1.257 6.643-3.143M71.68 44.86h-3.966l-2.167-6.828h-7.543l-2.07 6.827h-3.858l7.478-23.236h4.617l7.51 23.236Zm-6.783-9.69-1.962-6.069c-.206-.617-.596-2.08-1.17-4.378h-.066c-.227.986-.596 2.45-1.105 4.378l-1.929 6.07h6.242-.01ZM90.917 36.276c0 2.85-.769 5.104-2.308 6.751-1.376 1.474-3.089 2.2-5.137 2.2-2.21 0-3.793-.79-4.758-2.373h-.065v8.822h-3.728V33.62c0-1.788-.043-3.63-.14-5.516h3.272l.206 2.655h.076c1.236-2.005 3.121-3.002 5.646-3.002 1.973 0 3.631.78 4.942 2.341 1.323 1.56 1.984 3.62 1.984 6.167m-3.793.14c0-1.625-.369-2.98-1.106-4.03-.802-1.106-1.886-1.659-3.24-1.659-.922 0-1.756.303-2.504.91-.748.618-1.235 1.41-1.463 2.395-.12.466-.173.835-.173 1.138v2.796c0 1.214.368 2.244 1.116 3.078.748.846 1.723 1.257 2.915 1.257 1.398 0 2.493-.53 3.273-1.614.78-1.084 1.17-2.504 1.17-4.281M110.187 36.276c0 2.85-.77 5.104-2.309 6.751-1.376 1.474-3.089 2.2-5.137 2.2-2.2 0-3.793-.79-4.757-2.373h-.066v8.822h-3.717V33.62c0-1.788-.043-3.63-.14-5.516h3.272l.206 2.655h.076c1.236-2.005 3.121-3.002 5.646-3.002 1.973 0 3.62.78 4.942 2.341 1.322 1.56 1.984 3.62 1.984 6.167m-3.794.14c0-1.625-.368-2.98-1.105-4.03-.802-1.106-1.886-1.659-3.24-1.659-.922 0-1.756.303-2.504.91-.748.618-1.235 1.41-1.463 2.395-.12.466-.173.835-.173 1.138v2.796c0 1.214.368 2.244 1.116 3.078.748.846 1.712 1.257 2.915 1.257 1.398 0 2.493-.53 3.273-1.614.78-1.084 1.171-2.504 1.171-4.281M131.731 38.346c0 1.972-.682 3.587-2.069 4.822-1.518 1.355-3.62 2.038-6.33 2.038-2.503 0-4.508-.477-6.025-1.442l.867-3.099c1.636.986 3.424 1.485 5.386 1.485 1.398 0 2.493-.315 3.273-.943.78-.64 1.17-1.485 1.17-2.536 0-.943-.325-1.734-.964-2.384-.64-.65-1.712-1.247-3.208-1.8-4.064-1.517-6.102-3.738-6.102-6.665 0-1.907.716-3.478 2.135-4.692 1.42-1.225 3.317-1.832 5.69-1.832 2.113 0 3.869.369 5.267 1.106l-.932 3.034c-1.311-.715-2.796-1.073-4.443-1.073-1.312 0-2.33.326-3.067.965-.618.574-.932 1.279-.932 2.102 0 .922.357 1.68 1.062 2.276.617.553 1.745 1.149 3.381 1.8 1.994.801 3.468 1.744 4.411 2.828.943 1.084 1.409 2.428 1.409 4.031M144.032 30.9h-4.097v8.14c0 2.07.727 3.099 2.179 3.099.661 0 1.214-.055 1.647-.174l.098 2.829c-.726.27-1.702.412-2.894.412-1.474 0-2.623-.445-3.446-1.344-.824-.9-1.247-2.406-1.247-4.52V30.9h-2.449v-2.796h2.449v-3.067l3.653-1.105v4.172h4.096V30.9h.011ZM162.553 36.352c0 2.58-.737 4.693-2.2 6.34-1.539 1.701-3.587 2.547-6.134 2.547s-4.421-.813-5.874-2.45c-1.463-1.625-2.189-3.684-2.189-6.166 0-2.601.748-4.725 2.254-6.373 1.507-1.658 3.533-2.481 6.08-2.481s4.433.812 5.928 2.449c1.431 1.593 2.135 3.63 2.135 6.134Zm-3.858.12c0-1.54-.336-2.873-.997-3.978-.78-1.333-1.896-2.005-3.338-2.005-1.441 0-2.633.672-3.414 2.005-.672 1.105-.997 2.449-.997 4.042s.325 2.872.997 3.977c.802 1.334 1.929 2.005 3.382 2.005 1.452 0 2.536-.682 3.338-2.037.693-1.127 1.029-2.46 1.029-4.01ZM174.648 31.377a6.743 6.743 0 0 0-1.171-.098c-1.311 0-2.319.499-3.034 1.485-.618.878-.932 1.973-.932 3.306v8.789h-3.717l.032-11.477c0-1.93-.043-3.685-.141-5.278h3.241l.141 3.208h.097c.39-1.105 1.019-1.994 1.864-2.655.824-.596 1.723-.9 2.688-.9.347 0 .65.022.932.065v3.555ZM191.294 35.69c0 .672-.043 1.225-.13 1.691h-11.162c.043 1.658.585 2.916 1.614 3.793.943.78 2.157 1.17 3.653 1.17 1.647 0 3.153-.26 4.519-.79l.585 2.59c-1.582.693-3.457 1.04-5.625 1.04-2.59 0-4.638-.77-6.112-2.297-1.474-1.528-2.222-3.577-2.222-6.156 0-2.58.694-4.628 2.07-6.308 1.442-1.788 3.403-2.687 5.853-2.687 2.449 0 4.248.9 5.483 2.688.987 1.43 1.474 3.186 1.474 5.277m-3.544-.964c.022-1.106-.216-2.06-.726-2.861-.639-1.03-1.636-1.55-2.969-1.55-1.214 0-2.2.51-2.959 1.517-.618.802-.986 1.767-1.094 2.894h7.748Z"/></g><defs><clipPath id="a"><path fill="#fff" transform="translate(.208 .642)" d="M0 0h191.087v51.045H0z"/></clipPath></defs></svg>
